X:163
T:Turtle THO3.163, The
T:Bonny Kitty,aka THO3.163
O:England;London
M:2/4
L:1/16
Z:vmp. Peter Dunk 2011.from a transcription by Fynn Titford-Mock 2006-9
B:Thompson's Compleat Collection of 200 Favourite Country Dances Vol. III.1765-72
Q:1/4=120
K:G
[D2G,2]|[G2G,2][G2G,2] GABc|[d2D2][d2D2] -dgfe|dedc BcBA|\
[G2G,2][G2G,2][G2G,2][D2G,2]|
G2G2 -GABc|\
[d2D2][d2D2] -dgfe|dedc BcBA|[G2G,2][G2G,2][G2G,2]:|
|:g2|-gfed cBAG|c2c2c2a2 &E2E2E2x2|agfe dcBA|\
B2B2B2g2 &G2G2G2x2|
-gfed cBAG|c2c2e2g2 &E2E2c2x2|\
e2d"_*see ll.109 Bonny Kitty"c BcAc|[G2G,2][G2G,2][G2G,2]:|

